X:1
T:Blood on the Capitol Steps - Verse - Vocal
M:4/4
L:1/8
K:Cmin
"Cm"G2 G2 G2 c2 | "F"c2 c4 A2 |
w: Pink gra-nite shin-ing in the morn-ing sun
"Cm"G2 G2 G2 c2 | "Bb"B6 AG |
w: Re-pre-sen-ta-tive says the vote is done
"Gm"G2 G2 G2 B2 | "Eb"B2 B4 G2 |
w: But I-sai-ah ten says woe to those who make un-just laws
"Bb"F2 F2 F2 AG | "F"F8 |
w: And there's blood on the cap-i-tol steps be-cause
